X:86
T:no name
R:slide
Z:id:hn-slide-86
M:6/8
L:1/8
K:Ador
E2E AGE | G2A B2d | E2E AGE | G2E D3 |
E2E AGE | G2A B2d | e2d BAG |1 ABA A2G :|2 ABA ABd ||
e2e efe | d3 dBd | ~e3 e2f | g2e d2g |
e2e efe | d3 dcB | ABc B2A | G2E D2d |
e2e efe | d3 dBd | ~c3 e2f | g2e d2B |
~c3 cBA | ~c3 cBA | ABc B2A | G2E D2G ||

